X: 6
T: Glascon Lasses    [F]
O: T.Davis 1748
%R: march, reel
B: T. Davis "24 Country Dances for the Year 1748"
S: http://imslp.org/wiki/24_Country_Dances_for_the_Year_1748_(Davis,_T.) 2013-11-30
Z: 2013 John Chambers <jc:trillian.mit.edu>
N: The 2nd strain has initial repeat but no final repeat; fixed.
M: 2/4
L: 1/8
K: F
% - - - - - - - - - - - - - - - - - - - - - - - - -
c |\
"F"F>G Fd | cA cf | F>G "(Dm)"FA | "Gm"BG- "C7"Gc |\
"F"F>G "Bb"Fd | "F"cA- "(Dm)"Ac | "Gm"d>e "C7"fg | "F"af2 :|
|: (f/g/) |\
"F"a>g fF | Ac- cf/g/ | a>g fF | "C7"egg- gf/g/ "I"|\
"F"a>g fc | "Bb"d/e/f "F"cA "I"| "Gm"B/c/d "C7"BG | "F"AF2 :|
% - - - - - - - - - - - - - - - - - - - - - - - - -

%%sep 1 1 500

